mobile/24/svg/bookmark-slash-24.svg

<svg width="24" height="24" viewBox="0 0 24 24" fill="none" xmlns="http://www.w3.org/2000/svg">
<path fill-rule="evenodd" clip-rule="evenodd" d="M3.23768 1.99028L21.9997 20.7523L20.7622 21.9897L18.8123 20.0397C18.6724 20.4494 18.408 20.8158 18.039 21.084C17.319 21.606 16.372 21.636 15.623 21.162L12 18.873L8.37597 21.161C8.02197 21.386 7.62197 21.497 7.22497 21.497C6.78097 21.497 6.33897 21.358 5.95997 21.083C5.24397 20.563 4.92097 19.67 5.13997 18.811L6.19897 14.658L2.90197 11.92C2.21897 11.354 1.95397 10.443 2.22897 9.599C2.50397 8.755 3.25297 8.173 4.13797 8.116L6.72122 7.9487L2.00024 3.22772L3.23768 1.99028ZM8.36769 9.59517L4.25097 9.862C4.01397 9.877 3.92497 10.042 3.89397 10.139C3.86297 10.236 3.83697 10.422 4.01997 10.573L7.74197 13.665C8.00297 13.881 8.11497 14.227 8.03097 14.554L6.83597 19.243C6.77697 19.474 6.90697 19.608 6.98997 19.669C7.05497 19.718 7.23297 19.815 7.44097 19.684L11.532 17.099C11.82 16.917 12.181 16.917 12.468 17.099L16.559 19.684C16.77 19.815 16.946 19.718 17.01 19.669C17.093 19.608 17.223 19.473 17.164 19.243L16.8726 18.1001L8.36769 9.59517Z" fill="black"/>
<path d="M21.771 9.599C21.497 8.755 20.748 8.173 19.863 8.117L15.586 7.84L14 3.857C13.672 3.032 12.887 2.5 12 2.5C11.113 2.5 10.328 3.032 10 3.857L9.20801 5.848L10.555 7.195L11.626 4.504C11.714 4.283 11.897 4.25 12 4.25C12.103 4.25 12.286 4.283 12.375 4.504L14.164 8.999C14.288 9.313 14.583 9.527 14.92 9.549L19.749 9.862C19.986 9.878 20.075 10.043 20.106 10.139C20.137 10.235 20.163 10.421 19.98 10.574L16.676 13.317L17.919 14.56L21.097 11.921C21.78 11.354 22.045 10.442 21.771 9.599Z" fill="black"/>
</svg>

<svg width="24" height="24" fill="none" xmlns="http://www.w3.org/2000/svg"><path fill-rule="evenodd" clip-rule="evenodd" d="M3.238 1.99 22 20.752l-1.238 1.238-1.95-1.95c-.14.41-.404.776-.773 1.044a2.142 2.142 0 0 1-2.416.078L12 18.873l-3.624 2.288a2.144 2.144 0 0 1-2.416-.078 2.142 2.142 0 0 1-.82-2.272l1.059-4.153-3.297-2.738a2.139 2.139 0 0 1-.673-2.321 2.143 2.143 0 0 1 1.909-1.483l2.583-.167-4.72-4.721L3.237 1.99zm5.13 7.605-4.117.267a.382.382 0 0 0-.357.277.383.383 0 0 0 .126.434l3.722 3.092a.872.872 0 0 1 .289.889l-1.195 4.689a.383.383 0 0 0 .154.426.387.387 0 0 0 .451.015l4.091-2.585a.87.87 0 0 1 .936 0l4.091 2.585a.385.385 0 0 0 .451-.015.384.384 0 0 0 .154-.426l-.291-1.143-8.505-8.505z" fill="#000"/><path d="M21.771 9.599a2.138 2.138 0 0 0-1.908-1.482l-4.277-.277L14 3.857A2.14 2.14 0 0 0 12 2.5a2.14 2.14 0 0 0-2 1.357l-.792 1.991 1.347 1.347 1.071-2.691A.382.382 0 0 1 12 4.25c.103 0 .286.033.375.254l1.789 4.495a.874.874 0 0 0 .756.55l4.829.313a.384.384 0 0 1 .357.277.385.385 0 0 1-.126.435l-3.304 2.743 1.243 1.243 3.178-2.639a2.143 2.143 0 0 0 .674-2.322z" fill="#000"/></svg>
